X: 080814
T: Hills of Clogher
S: "100 Enduring Irish Session Tunes" ("Mally")
Z: B.Black
L: 1/8
M: 4/4
R: reel
K: Ador
eA A2 gAfA|eA A2 eAdA|eA A2 egfa|gedB GABd :|
eaag bgag|eaag egdg|eaag bgag|edef gdBd|
eaag bgag|edef g2 ga|bg g2 aged|eaag edBd ||
